img/skills/React.svg

<svg width="46" height="55" viewBox="0 0 46 55" fill="none" xmlns="http://www.w3.org/2000/svg">
<path d="M23 2L1 15V40.5L23 53L45 40.5V15L23 2Z" fill="#222222" stroke="#01D9FE" stroke-width="2"/>
<path d="M23 31.2956C24.8201 31.2956 26.2955 29.8201 26.2955 28.0001C26.2955 26.18 24.8201 24.7046 23 24.7046C21.1799 24.7046 19.7045 26.18 19.7045 28.0001C19.7045 29.8201 21.1799 31.2956 23 31.2956Z" fill="#00D8FF"/>
<path d="M37.4516 19.6551C36.388 17.8142 33.8343 17.0579 30.2572 17.5198C29.8033 17.5789 29.3369 17.6604 28.8633 17.7563C27.5128 13.9285 25.4099 11.5 23 11.5C20.5863 11.5 18.4807 13.9366 17.1305 17.7751C13.0229 16.9611 9.77064 17.5401 8.54771 19.6551C7.32884 21.7656 8.44205 24.8594 11.1829 28C8.44205 31.1406 7.32884 34.2344 8.54765 36.3449C9.41979 37.8559 11.3226 38.5881 13.8344 38.5881C14.9421 38.5729 16.0457 38.4508 17.1299 38.2235C18.4801 42.0628 20.586 44.5 23 44.5C25.4099 44.5 27.5128 42.0715 28.8633 38.2437C29.3369 38.3396 29.8033 38.4211 30.2572 38.4802C30.9022 38.5656 31.552 38.6097 32.2027 38.6122C34.7596 38.6122 36.5924 37.8318 37.4516 36.345C38.6705 34.2345 37.5574 31.1407 34.817 28C37.5574 24.8594 38.6705 21.7656 37.4516 19.6551ZM30.4776 19.2093C31.0543 19.132 31.6353 19.0917 32.2171 19.0887C34.1078 19.0887 35.4418 19.581 35.9776 20.5079C36.734 21.8179 35.8779 24.17 33.6498 26.7596C32.5726 25.6997 31.4188 24.7206 30.1977 23.8303C30.0345 22.3439 29.7602 20.8717 29.3771 19.4262C29.7431 19.3562 30.1254 19.2552 30.4776 19.2093ZM25.8691 32.9706C24.8994 33.5306 23.943 34.0258 23.0087 34.4608C22.0496 34.0145 21.0869 33.5228 20.1302 32.9706C19.1569 32.4087 18.2473 31.8257 17.4008 31.2318C17.3074 30.2027 17.2555 29.1243 17.2555 28C17.2555 26.8757 17.3074 25.7973 17.4008 24.7682C18.2473 24.1743 19.1569 23.5913 20.1302 23.0294C21.0825 22.4797 22.0409 21.9894 22.9955 21.5447C23.9356 21.9817 24.8932 22.4658 25.8691 23.0294C26.8428 23.5915 27.7527 24.1746 28.5994 24.7688C28.6928 25.7978 28.7447 26.8759 28.7447 28C28.7447 29.1241 28.6928 30.2022 28.5994 31.2312C27.7527 31.8254 26.8427 32.4085 25.8691 32.9706ZM28.3111 33.4732C28.1632 34.3949 27.9672 35.3082 27.7241 36.2094C26.8299 35.9625 25.9488 35.6708 25.0839 35.3355C25.6283 35.0548 26.1746 34.7605 26.7219 34.4445C27.2685 34.129 27.7965 33.8039 28.3111 33.4732ZM20.925 35.3388C20.0574 35.674 19.1735 35.9651 18.2765 36.211C18.033 35.3091 17.8369 34.3951 17.6889 33.4728C18.2038 33.8036 18.732 34.1288 19.2789 34.4446C19.8253 34.7602 20.3748 35.0552 20.925 35.3388ZM15.6114 29.8755C14.8806 29.2865 14.1802 28.6605 13.5132 28C14.1802 27.3395 14.8806 26.7135 15.6114 26.1244C15.5813 26.7398 15.5626 27.3639 15.5626 28C15.5626 28.6361 15.5813 29.2601 15.6114 29.8755ZM17.6889 22.5272C17.8367 21.6065 18.0325 20.6942 18.2754 19.7938C19.1743 20.0369 20.0601 20.3256 20.9295 20.6591C20.3778 20.9433 19.827 21.2389 19.279 21.5554C18.732 21.8712 18.2038 22.1964 17.6889 22.5272ZM25.0848 20.6642C25.9494 20.3291 26.8303 20.0376 27.7241 19.7907C27.9673 20.6919 28.1633 21.6052 28.3112 22.5268C27.7966 22.1961 27.2686 21.8711 26.722 21.5555C26.1749 21.2397 25.629 20.9448 25.0848 20.6642ZM30.3887 26.125C31.1192 26.7139 31.8192 27.3398 32.486 28C31.8192 28.6603 31.1192 29.2861 30.3886 29.875C30.4186 29.2598 30.4374 28.636 30.4374 28C30.4374 27.364 30.4187 26.7402 30.3887 26.125ZM23 13.1928C24.4966 13.1928 26.0842 15.0443 27.2112 18.1585C25.772 18.5626 24.3636 19.0696 22.9971 19.6756C21.6318 19.0713 20.2243 18.5672 18.7858 18.1672C19.9131 15.0476 21.5024 13.1928 23 13.1928ZM10.0216 20.5079C10.5486 19.5955 11.8995 19.1063 13.8023 19.1063C14.7514 19.1198 15.6972 19.2209 16.6277 19.4086C16.2421 20.8599 15.9661 22.3381 15.8022 23.8307C14.5809 24.721 13.427 25.7001 12.3497 26.7601C10.1212 24.1704 9.26511 21.818 10.0216 20.5079ZM10.0216 35.4921C9.26511 34.182 10.1212 31.8296 12.3497 29.2399C13.427 30.2999 14.581 31.279 15.8022 32.1693C15.9663 33.6647 16.243 35.1457 16.6299 36.5996C13.2587 37.243 10.782 36.8087 10.0216 35.4921ZM23 42.8072C21.502 42.8072 19.9123 40.9516 18.7849 37.8306C20.2254 37.4327 21.635 36.9301 23.0022 36.3267C24.3672 36.9317 25.7738 37.4379 27.2112 37.8414C26.0842 40.9556 24.4966 42.8072 23 42.8072ZM35.9776 35.4921C35.2889 36.6813 33.2888 37.1559 30.4776 36.7907C30.1254 36.7448 29.7431 36.6438 29.3771 36.5738C29.7602 35.1283 30.0345 33.6561 30.1977 32.1696C31.4188 31.2793 32.5727 30.3003 33.6498 29.2405C35.878 31.83 36.734 34.1821 35.9776 35.4921Z" fill="#00D8FF"/>
</svg>

<svg width="46" height="55" fill="none" xmlns="http://www.w3.org/2000/svg"><path d="M23 2 1 15v25.5L23 53l22-12.5V15L23 2z" fill="#222" stroke="#01D9FE" stroke-width="2"/><path d="M23 31.296a3.296 3.296 0 1 0 0-6.591 3.296 3.296 0 0 0 0 6.59z" fill="#00D8FF"/><path d="M37.452 19.655c-1.064-1.84-3.618-2.597-7.195-2.135-.454.059-.92.14-1.394.236C27.513 13.928 25.41 11.5 23 11.5c-2.414 0-4.52 2.437-5.87 6.275-4.107-.814-7.36-.235-8.582 1.88-1.22 2.11-.106 5.204 2.635 8.345-2.74 3.14-3.854 6.234-2.635 8.345.872 1.51 2.775 2.243 5.286 2.243a17.212 17.212 0 0 0 3.296-.364C18.48 42.063 20.586 44.5 23 44.5c2.41 0 4.513-2.428 5.863-6.256.474.096.94.177 1.394.236.645.086 1.295.13 1.946.132 2.557 0 4.39-.78 5.249-2.267 1.218-2.11.105-5.204-2.635-8.345 2.74-3.14 3.853-6.234 2.635-8.345zm-6.974-.446a13.622 13.622 0 0 1 1.74-.12c1.89 0 3.224.492 3.76 1.419.756 1.31-.1 3.662-2.328 6.252a30.76 30.76 0 0 0-3.452-2.93 29.951 29.951 0 0 0-.82-4.404c.365-.07.747-.17 1.1-.217zm-4.609 13.762c-.97.56-1.926 1.055-2.86 1.49a36.821 36.821 0 0 1-2.879-1.49 36.704 36.704 0 0 1-2.73-1.74 35.753 35.753 0 0 1 0-6.463 36.704 36.704 0 0 1 2.73-1.739c.953-.55 1.91-1.04 2.866-1.484.94.437 1.897.92 2.873 1.484a36.654 36.654 0 0 1 2.73 1.74 35.74 35.74 0 0 1 0 6.462 36.675 36.675 0 0 1-2.73 1.74zm2.442.502a26.825 26.825 0 0 1-.587 2.736 27.7 27.7 0 0 1-2.64-.873c.544-.281 1.09-.575 1.638-.892.546-.315 1.075-.64 1.59-.97zm-7.386 1.866c-.868.335-1.752.626-2.649.872a26.79 26.79 0 0 1-.587-2.738c.515.33 1.043.656 1.59.972.546.315 1.096.61 1.646.894zm-5.314-5.463A27.568 27.568 0 0 1 13.513 28a27.59 27.59 0 0 1 2.098-1.876A38.49 38.49 0 0 0 15.563 28c0 .636.018 1.26.048 1.875zm2.078-7.349c.148-.92.343-1.833.586-2.733.9.243 1.785.532 2.655.865-.552.284-1.103.58-1.651.896a39.26 39.26 0 0 0-1.59.972zm7.396-1.863a27.747 27.747 0 0 1 2.64-.873c.242.9.438 1.814.586 2.736a39.105 39.105 0 0 0-1.589-.972 39.228 39.228 0 0 0-1.637-.89zm5.304 5.461A27.61 27.61 0 0 1 32.486 28a27.57 27.57 0 0 1-2.097 1.875c.03-.615.048-1.239.048-1.875 0-.636-.018-1.26-.048-1.875zM23 13.193c1.497 0 3.084 1.851 4.211 4.966a31.2 31.2 0 0 0-4.214 1.517 30.776 30.776 0 0 0-4.211-1.509c1.127-3.12 2.716-4.974 4.214-4.974zm-12.978 7.315c.527-.912 1.877-1.402 3.78-1.402.95.014 1.895.115 2.826.303a29.954 29.954 0 0 0-.826 4.422 30.746 30.746 0 0 0-3.452 2.93c-2.229-2.59-3.085-4.943-2.328-6.253zm0 14.984c-.757-1.31.1-3.662 2.328-6.252a30.755 30.755 0 0 0 3.452 2.93c.164 1.495.441 2.976.828 4.43-3.371.643-5.848.209-6.608-1.108zM23 42.807c-1.498 0-3.088-1.855-4.215-4.976 1.44-.398 2.85-.9 4.217-1.504a31.192 31.192 0 0 0 4.21 1.514c-1.128 3.115-2.715 4.966-4.212 4.966zm12.978-7.315c-.69 1.19-2.69 1.664-5.5 1.299-.353-.046-.735-.147-1.1-.217a29.95 29.95 0 0 0 .82-4.404 30.76 30.76 0 0 0 3.452-2.93c2.228 2.59 3.084 4.942 2.328 6.252z" fill="#00D8FF"/></svg>
